;FLAVOR:Marlin
;TIME:8926
;Filament used: 5.68381m
;Layer height: 0.12
;MINX:65.029
;MINY:66.238
;MINZ:0.12
;MAXX:170
;MAXY:168.756
;MAXZ:20.04
;TARGET_MACHINE.NAME:Creality Ender-3
;Generated with Cura_SteamEngine 5.9.0
M140 S50
M105
M190 S50
M104 S200
M105
M109 S200
M82 ;absolute extrusion mode
; Ender 3 Custom Start G-code
G92 E0 ; Reset Extruder
G28 ; Home all axes
G1 Z2.0 F3000 ; Move Z Axis up little to prevent scratching of Heat Bed
G1 X0.1 Y20 Z0.3 F5000.0 ; Move to start position
G1 X0.1 Y200.0 Z0.3 F1500.0 E15 ; Draw the first line
G1 X0.4 Y200.0 Z0.3 F5000.0 ; Move to side a little
G1 X0.4 Y20 Z0.3 F1500.0 E30 ; Draw the second line
G92 E0 ; Reset Extruder
G1 Z2.0 F3000 ; Move Z Axis up little to prevent scratching of Heat Bed
G1 X5 Y20 Z0.3 F5000.0 ; Move over to prevent blob squish
G92 E0
G92 E0
G1 F2700 E-5
;LAYER_COUNT:167
;LAYER:0
M107
G0 F6000 X83.639 Y156.495 Z0.12
;TYPE:SKIRT
G1 F2700 E0
G1 F1200 X83.065 Y156.05 E0.01449
G1 X82.156 Y155.261 E0.03851
G1 X81.493 Y154.616 E0.05697
G1 X78.386 Y151.509 E0.14466
G1 X77.894 Y151.003 E0.15874
G1 X77.071 Y150.052 E0.18384
G1 X76.533 Y149.353 E0.20144
G1 X73.879 Y145.805 E0.28987
G1 X73.459 Y145.227 E0.30412
G1 X72.785 Y144.178 E0.32901
G1 X72.392 Y143.482 E0.34496
G1 X70.232 Y139.527 E0.43489
G1 X69.884 Y138.865 E0.44981
G1 X69.38 Y137.761 E0.47403
G1 X69.051 Y136.916 E0.49213
G1 X67.504 Y132.765 E0.58053
G1 X67.253 Y132.055 E0.59556
G1 X66.919 Y130.914 E0.61928
G1 X66.714 Y130.03 E0.63739
G1 X65.812 Y125.881 E0.72213
G1 X65.631 Y124.985 E0.74037
G1 X65.459 Y123.791 E0.76444
G1 X65.379 Y122.84 E0.78349
G1 X65.081 Y118.654 E0.86723
G1 X65.029 Y117.744 E0.88542
G1 X65.031 Y116.528 E0.90969
G1 X65.088 Y115.547 E0.9293
G1 X65.422 Y111.086 E1.01857
G1 X65.498 Y110.227 E1.03578
G1 X65.675 Y109.04 E1.05973
G1 X65.919 Y107.877 E1.08345
G1 X66.868 Y103.698 E1.16897
G1 X67.081 Y102.819 E1.18702
G1 X67.426 Y101.688 E1.21061
G1 X67.844 Y100.556 E1.23469
G1 X69.484 Y96.362 E1.32456
G1 X69.756 Y95.701 E1.33882
G1 X70.265 Y94.638 E1.36234
G1 X70.83 Y93.611 E1.38574
G1 X73.012 Y89.811 E1.47318
G1 X73.439 Y89.093 E1.48985
G1 X74.129 Y88.073 E1.51443
G1 X74.813 Y87.18 E1.53688
G1 X77.536 Y83.744 E1.62437
G1 X78.06 Y83.099 E1.64095
G1 X78.878 Y82.208 E1.66509
G1 X79.613 Y81.498 E1.68548
G1 X82.986 Y78.344 E1.77764
G1 X83.535 Y77.847 E1.79242
G1 X84.51 Y77.06 E1.81742
G1 X85.427 Y76.408 E1.83987
G1 X89.044 Y73.916 E1.92753
G1 X89.704 Y73.476 E1.94336
G1 X90.747 Y72.864 E1.96749
G1 X91.811 Y72.322 E1.99132
G1 X95.725 Y70.41 E2.07825
G1 X96.459 Y70.064 E2.09444
G1 X97.632 Y69.595 E2.11965
G1 X98.76 Y69.217 E2.14339
G1 X102.907 Y67.912 E2.23015
G1 X103.709 Y67.673 E2.24685
G1 X104.893 Y67.394 E2.27113
G1 X106.026 Y67.196 E2.29408
G1 X110.513 Y66.491 E2.38472
G1 X111.186 Y66.396 E2.39829
G1 X112.411 Y66.296 E2.42281
G1 X113.564 Y66.269 E2.44583
G1 X118.089 Y66.238 E2.53613
G1 X118.754 Y66.244 E2.5494
G1 X119.996 Y66.326 E2.57424
G1 X121.125 Y66.469 E2.59695
G1 X125.571 Y67.105 E2.68658
G1 X126.287 Y67.218 E2.70105
G1 X127.474 Y67.478 E2.7253
G1 X128.592 Y67.792 E2.74847
G1 X132.86 Y69.068 E2.83737
G1 X133.532 Y69.279 E2.85142
G1 X134.746 Y69.741 E2.87735
G1 X135.766 Y70.202 E2.89968
G1 X139.711 Y72.056 E2.98667
G1 X140.479 Y72.431 E3.00373
G1 X141.538 Y73.027 E3.02798
G1 X142.52 Y73.658 E3.05127
G1 X146.279 Y76.169 E3.14148
G1 X146.844 Y76.56 E3.1552
G1 X147.821 Y77.323 E3.17993
G1 X148.661 Y78.061 E3.20225
G1 X152.048 Y81.138 E3.29357
G1 X152.506 Y81.566 E3.30608
G1 X153.376 Y82.482 E3.33129
G1 X154.117 Y83.362 E3.35424
G1 X156.974 Y86.865 E3.44445
G1 X157.398 Y87.401 E3.45809
G1 X158.074 Y88.365 E3.48159
G1 X158.692 Y89.366 E3.50506
G1 X161.018 Y93.288 E3.59606
G1 X161.65 Y94.389 E3.62139
G1 X162.455 Y95.833 E3.65439
G1 X163.751 Y98.015 E3.70503
G1 X165.078 Y100.112 E3.75456
G1 X166.502 Y102.226 E3.80542
G1 X167.968 Y104.291 E3.85596
G1 X168.504 Y105.127 E3.87578
G1 X168.954 Y105.989 E3.89518
G1 X169.328 Y106.89 E3.91465
G1 X169.61 Y107.785 E3.93338
G1 X169.829 Y108.77 E3.95351
G1 X169.946 Y109.665 E3.97153
G1 X169.985 Y110.315 E3.98452
G1 X170 Y110.972 E3.99764
G1 X169.999 Y115.843 E4.09484
G1 X169.984 Y116.829 E4.11452
G1 X169.915 Y119.304 E4.16393
G1 X169.915 Y121.832 E4.21438
G1 X169.996 Y124.923 E4.27609
G1 X169.999 Y145.843 E4.69357
G1 X169.984 Y146.829 E4.71325
G1 X169.915 Y149.304 E4.76266
G1 X169.915 Y151.832 E4.8131
G1 X169.996 Y154.921 E4.87477
G1 X169.999 Y157.168 E4.91961
G1 X169.988 Y157.929 E4.9348
G1 X169.931 Y158.901 E4.95423
G1 X169.786 Y159.864 E4.97366
G1 X169.557 Y160.81 E4.99309
G1 X169.247 Y161.733 E5.01252
G1 X168.886 Y162.561 E5.03054
G1 X168.385 Y163.479 E5.05142
G1 X167.841 Y164.286 E5.07084
G1 X167.229 Y165.044 E5.09028
G1 X166.553 Y165.743 E5.10968
G1 X165.817 Y166.382 E5.12914
G1 X165.086 Y166.913 E5.14717
G1 X164.19 Y167.449 E5.168
G1 X163.312 Y167.871 E5.18744
G1 X162.401 Y168.213 E5.20686
G1 X161.462 Y168.474 E5.22631
G1 X160.505 Y168.65 E5.24573
G1 X159.548 Y168.742 E5.26491
G1 X158.991 Y168.756 E5.27603
G1 X158.083 Y168.755 E5.29415
G1 X116.413 Y168.149 E6.12581
G1 X115.378 Y168.113 E6.14648
G1 X114.465 Y168.06 E6.16473
G1 X110.084 Y167.747 E6.25238
G1 X109.386 Y167.688 E6.26636
G1 X108.127 Y167.507 E6.29174
G1 X107.294 Y167.337 E6.30871
G1 X102.855 Y166.369 E6.39937
G1 X102.181 Y166.211 E6.41319
G1 X101.047 Y165.875 E6.43679
G1 X100.169 Y165.561 E6.4554
G1 X96.05 Y164.024 E6.54314
G1 X95.37 Y163.758 E6.55771
G1 X94.267 Y163.254 E6.58191
G1 X93.578 Y162.89 E6.59746
G1 X89.633 Y160.734 E6.68717
G1 X88.944 Y160.346 E6.70295
G1 X87.959 Y159.713 E6.72632
G1 X87.164 Y159.135 E6.74594
G1 X83.639 Y156.495 E6.83382
G0 F6000 X83.884 Y156.179
G1 F1200 X83.327 Y155.748 E6.84788
G1 X82.435 Y154.974 E6.87144
G1 X81.772 Y154.329 E6.8899
G1 X78.673 Y151.23 E6.97736
G1 X78.181 Y150.724 E6.99145
G1 X77.388 Y149.808 E7.01563
G1 X76.853 Y149.113 E7.03313
G1 X74.203 Y145.57 E7.12142
G1 X73.783 Y144.992 E7.13568
G1 X73.133 Y143.981 E7.15967
G1 X72.743 Y143.29 E7.1755
G1 X70.586 Y139.34 E7.26532
G1 X70.248 Y138.699 E7.27978
G1 X69.753 Y137.616 E7.30354
G1 X69.426 Y136.776 E7.32153
G1 X67.881 Y132.631 E7.40981
G1 X67.637 Y131.943 E7.42437
G1 X67.309 Y130.823 E7.44766
G1 X67.105 Y129.945 E7.46565
G1 X66.204 Y125.802 E7.55026
G1 X66.027 Y124.928 E7.56806
G1 X65.858 Y123.757 E7.59167
G1 X65.778 Y122.812 E7.61059
G1 X65.48 Y118.631 E7.69424
G1 X65.429 Y117.744 E7.71197
G1 X65.43 Y116.551 E7.73578
G1 X65.487 Y115.577 E7.75525
G1 X65.82 Y111.121 E7.84442
G1 X65.894 Y110.286 E7.86115
G1 X66.067 Y109.122 E7.88464
G1 X66.309 Y107.966 E7.9082
G1 X67.257 Y103.792 E7.99362
G1 X67.464 Y102.936 E8.0112
G1 X67.809 Y101.805 E8.03479
G1 X68.217 Y100.702 E8.05826
G1 X69.854 Y96.514 E8.148
G1 X70.117 Y95.874 E8.16181
G1 X70.626 Y94.811 E8.18533
G1 X71.177 Y93.81 E8.20813
G1 X73.356 Y90.015 E8.29546
G1 X73.77 Y89.317 E8.31165
G1 X74.447 Y88.316 E8.33577
G1 X75.127 Y87.428 E8.35809
G1 X77.846 Y83.996 E8.44547
G1 X78.355 Y83.37 E8.46157
G1 X79.173 Y82.479 E8.48571
G1 X79.886 Y81.79 E8.50549
G1 X83.255 Y78.64 E8.59753
G1 X83.786 Y78.158 E8.61185
G1 X84.742 Y77.386 E8.63637
G1 X85.654 Y76.737 E8.6587
G1 X89.266 Y74.249 E8.74623
G1 X89.926 Y73.809 E8.76206
G1 X90.949 Y73.209 E8.78573
G1 X91.986 Y72.681 E8.80895
G1 X95.896 Y70.772 E8.89578
G1 X96.63 Y70.426 E8.91198
G1 X97.759 Y69.974 E8.93625
G1 X98.88 Y69.599 E8.95983
G1 X103.021 Y68.295 E9.04647
G1 X103.801 Y68.062 E9.06272
G1 X104.962 Y67.788 E9.08652
G1 X106.088 Y67.591 E9.10934
G1 X110.569 Y66.887 E9.19986
G1 X111.219 Y66.795 E9.21296
G1 X112.42 Y66.696 E9.23701
G1 X113.567 Y66.669 E9.2599
G1 X118.086 Y66.638 E9.35008
G1 X118.728 Y66.643 E9.3629
G1 X119.946 Y66.723 E9.38726
G1 X121.068 Y66.865 E9.40983
G1 X125.509 Y67.5 E9.49935
G1 X126.201 Y67.609 E9.51333
G1 X127.388 Y67.869 E9.53758
G1 X128.477 Y68.175 E9.56015
G1 X132.74 Y69.45 E9.64895
G1 X133.412 Y69.661 E9.66301
G1 X134.581 Y70.106 E9.68797
G1 X135.596 Y70.564 E9.71019
G1 X139.536 Y72.416 E9.79707
G1 X140.283 Y72.78 E9.81365
G1 X141.322 Y73.364 E9.83744
G1 X142.298 Y73.991 E9.86059
G1 X146.051 Y76.498 E9.95066
G1 X146.616 Y76.889 E9.96437
G1 X147.557 Y77.623 E9.98818
G1 X148.392 Y78.357 E10.01037
G1 X151.775 Y81.43 E10.10158
G1 X152.216 Y81.842 E10.11362
G1 X153.07 Y82.74 E10.13835
G1 X153.807 Y83.615 E10.16118
G1 X156.66 Y87.113 E10.25126
G1 X157.07 Y87.631 E10.26445
G1 X157.746 Y88.595 E10.28794
G1 X158.348 Y89.57 E10.31081
G1 X160.671 Y93.487 E10.40169
G1 X161.301 Y94.584 E10.42693
G1 X162.111 Y96.037 E10.46013
G1 X163.413 Y98.229 E10.51101
G1 X164.746 Y100.335 E10.56075
G1 X166.176 Y102.458 E10.61183
G1 X167.642 Y104.523 E10.66237
G1 X168.15 Y105.313 E10.68111
G1 X168.585 Y106.143 E10.69981
G1 X168.946 Y107.01 E10.71855
G1 X169.228 Y107.905 E10.73728
G1 X169.432 Y108.822 E10.75603
G1 X169.549 Y109.717 E10.77404
G1 X169.585 Y110.324 E10.78618
G1 X169.6 Y110.972 E10.79911
G1 X169.599 Y115.837 E10.8962
G1 X169.584 Y116.818 E10.91578
G1 X169.515 Y119.293 E10.96519
G1 X169.515 Y121.832 E11.01585
G1 X169.553 Y123.209 E11.04334
G1 X169.55 Y123.354 E11.04624
G1 X169.596 Y124.923 E11.07756
G1 X169.599 Y145.837 E11.49492
G1 X169.584 Y146.818 E11.5145
G1 X169.515 Y149.293 E11.56391
G1 X169.515 Y151.832 E11.61458
G1 X169.553 Y153.209 E11.64207
G1 X169.55 Y153.354 E11.64497
G1 X169.596 Y154.922 E11.67627
G1 X169.599 Y157.163 E11.72099
G1 X169.589 Y157.906 E11.73582
G1 X169.535 Y158.842 E11.75453
G1 X169.397 Y159.771 E11.77327
G1 X169.178 Y160.683 E11.79199
G1 X168.88 Y161.573 E11.81072
G1 X168.519 Y162.401 E11.82875
G1 X168.053 Y163.256 E11.84818
G1 X167.53 Y164.035 E11.8669
G1 X166.941 Y164.766 E11.88564
G1 X166.29 Y165.441 E11.90435
G1 X165.582 Y166.058 E11.92309
G1 X164.851 Y166.589 E11.94112
G1 X164.016 Y167.089 E11.96055
G1 X163.171 Y167.497 E11.97927
G1 X162.293 Y167.828 E11.998
G1 X161.389 Y168.081 E12.01673
G1 X160.466 Y168.252 E12.03546
G1 X159.538 Y168.342 E12.05407
G1 X158.991 Y168.356 E12.06499
G1 X158.089 Y168.355 E12.08299
G1 X116.427 Y167.749 E12.91449
G1 X115.401 Y167.714 E12.93498
G1 X114.494 Y167.661 E12.95311
G1 X110.118 Y167.348 E13.04066
G1 X109.42 Y167.289 E13.05464
G1 X108.207 Y167.115 E13.07909
G1 X107.379 Y166.946 E13.09596
G1 X102.946 Y165.98 E13.1865
G1 X102.294 Y165.827 E13.19986
G1 X101.182 Y165.498 E13.223
G1 X100.309 Y165.186 E13.2415
G1 X96.195 Y163.651 E13.32913
G1 X95.536 Y163.394 E13.34325
G1 X94.454 Y162.9 E13.36698
G1 X93.77 Y162.539 E13.38242
G1 X89.829 Y160.386 E13.47204
G1 X89.16 Y160.009 E13.48736
G1 X88.175 Y159.376 E13.51073
G1 X87.404 Y158.815 E13.52976
G1 X83.884 Y156.179 E13.61751
G0 F6000 X84.128 Y155.862
G1 F1200 X83.589 Y155.446 E13.6311
G1 X82.714 Y154.687 E13.65422
G1 X82.051 Y154.042 E13.67268
G1 X78.96 Y150.951 E13.75991
G1 X78.468 Y150.445 E13.77399
G1 X77.705 Y149.564 E13.79725
G1 X77.173 Y148.873 E13.81466
G1 X74.526 Y145.335 E13.90283
G1 X74.119 Y144.776 E13.91663
G1 X73.481 Y143.784 E13.94017
G1 X73.094 Y143.098 E13.95589
G1 X70.94 Y139.153 E14.04559
G1 X70.612 Y138.533 E14.05958
G1 X70.126 Y137.471 E14.08289
G1 X69.801 Y136.636 E14.10077
G1 X68.258 Y132.497 E14.18892
G1 X68.021 Y131.831 E14.20303
G1 X67.699 Y130.732 E14.22588
G1 X67.496 Y129.86 E14.24375
G1 X66.596 Y125.722 E14.32826
G1 X66.423 Y124.871 E14.34559
G1 X66.257 Y123.723 E14.36874
G1 X66.177 Y122.784 E14.38754
G1 X65.879 Y118.608 E14.47109
G1 X65.829 Y117.744 E14.48836
G1 X65.829 Y116.575 E14.51169
G1 X65.886 Y115.607 E14.53104
G1 X66.218 Y111.156 E14.62011
G1 X66.29 Y110.345 E14.63636
G1 X66.463 Y109.181 E14.65985
G1 X66.699 Y108.055 E14.68281
G1 X67.646 Y103.886 E14.76812
G1 X67.847 Y103.053 E14.78522
G1 X68.192 Y101.922 E14.80882
G1 X68.59 Y100.848 E14.83168
G1 X70.224 Y96.666 E14.92128
G1 X70.478 Y96.046 E14.93465
G1 X70.976 Y95.004 E14.95769
G1 X71.524 Y94.009 E14.98036
G1 X73.7 Y90.219 E15.06758
G1 X74.102 Y89.541 E15.08331
G1 X74.765 Y88.559 E15.10695
G1 X75.441 Y87.676 E15.12914
G1 X78.156 Y84.248 E15.21641
G1 X78.65 Y83.641 E15.23203
G1 X79.468 Y82.75 E15.25617
G1 X80.159 Y82.082 E15.27535
G1 X83.524 Y78.936 E15.36727
G1 X84.037 Y78.469 E15.38112
G1 X84.974 Y77.712 E15.40516
G1 X85.881 Y77.066 E15.42738
G1 X89.488 Y74.582 E15.51478
G1 X90.148 Y74.142 E15.53061
G1 X91.151 Y73.554 E15.55381
G1 X92.161 Y73.04 E15.57643
G1 X96.067 Y71.134 E15.66316
G1 X96.801 Y70.788 E15.67935
G1 X97.908 Y70.345 E15.70315
G1 X99 Y69.981 E15.72612
G1 X103.136 Y68.678 E15.81266
G1 X103.893 Y68.451 E15.82843
G1 X105.031 Y68.182 E15.85176
G1 X106.15 Y67.986 E15.87443
G1 X110.625 Y67.283 E15.96483
G1 X111.252 Y67.194 E15.97747
G1 X112.429 Y67.096 E16.00104
G1 X113.57 Y67.069 E16.02382
G1 X118.083 Y67.038 E16.11388
G1 X118.702 Y67.042 E16.12623
G1 X119.896 Y67.12 E16.15011
G1 X121.011 Y67.261 E16.17254
G1 X125.447 Y67.895 E16.26196
G1 X126.116 Y68 E16.27548
G1 X127.28 Y68.254 E16.29925
G1 X128.362 Y68.558 E16.32168
G1 X132.62 Y69.832 E16.41038
G1 X133.292 Y70.043 E16.42443
G1 X134.417 Y70.471 E16.44845
G1 X135.426 Y70.926 E16.47054
G1 X139.361 Y72.776 E16.55731
G1 X140.087 Y73.129 E16.57342
G1 X141.126 Y73.713 E16.59721
G1 X142.076 Y74.324 E16.61975
G1 X145.824 Y76.827 E16.70969
G1 X146.37 Y77.204 E16.72293
G1 X147.293 Y77.924 E16.74629
G1 X148.123 Y78.653 E16.76834
G1 X151.502 Y81.723 E16.85945
G1 X151.926 Y82.118 E16.87101
G1 X152.764 Y82.998 E16.89526
G1 X153.497 Y83.868 E16.91796
G1 X156.346 Y87.361 E17.00792
G1 X156.742 Y87.861 E17.02064
G1 X157.418 Y88.825 E17.04414
G1 X158.004 Y89.774 E17.0664
G1 X160.324 Y93.686 E17.15716
G1 X160.952 Y94.779 E17.18232
G1 X161.767 Y96.241 E17.21572
G1 X163.075 Y98.443 E17.26683
G1 X164.414 Y100.558 E17.31679
G1 X165.85 Y102.69 E17.36808
G1 X167.306 Y104.74 E17.41826
G1 X167.796 Y105.499 E17.43629
G1 X168.216 Y106.298 E17.45431
G1 X168.565 Y107.131 E17.47233
G1 X168.838 Y107.992 E17.49035
G1 X169.035 Y108.874 E17.50839
G1 X169.152 Y109.769 E17.5264
G1 X169.185 Y110.333 E17.53768
G1 X169.2 Y110.972 E17.55043
G1 X169.199 Y115.831 E17.6474
G1 X169.184 Y116.807 E17.66688
G1 X169.115 Y119.282 E17.71629
G1 X169.115 Y121.832 E17.76718
G1 X169.153 Y123.202 E17.79453
G1 X169.15 Y123.366 E17.7978
G1 X169.196 Y124.923 E17.82888
G1 X169.199 Y145.831 E18.24613
G1 X169.184 Y146.807 E18.26561
G1 X169.115 Y149.282 E18.31502
G1 X169.115 Y151.832 E18.3659
G1 X169.153 Y153.202 E18.39325
G1 X169.15 Y153.366 E18.39653
G1 X169.196 Y154.923 E18.42761
G1 X169.199 Y157.158 E18.47222
G1 X169.19 Y157.883 E18.48668
G1 X169.139 Y158.784 E18.50469
G1 X169.008 Y159.678 E18.52272
G1 X168.799 Y160.556 E18.54074
G1 X168.513 Y161.413 E18.55877
G1 X168.152 Y162.241 E18.57679
G1 X167.72 Y163.034 E18.59481
G1 X167.218 Y163.785 E18.61284
G1 X166.653 Y164.489 E18.63085
G1 X166.027 Y165.14 E18.64888
G1 X165.347 Y165.734 E18.6669
G1 X164.616 Y166.265 E18.68493
G1 X163.841 Y166.729 E18.70295
G1 X163.029 Y167.123 E18.72096
G1 X162.184 Y167.443 E18.73899
G1 X161.315 Y167.688 E18.75701
G1 X160.427 Y167.854 E18.77504
G1 X159.528 Y167.942 E18.79307
G1 X158.991 Y167.956 E18.80379
G1 X158.095 Y167.955 E18.82167
G1 X116.44 Y167.349 E19.65303
G1 X115.424 Y167.315 E19.67331
G1 X114.523 Y167.262 E19.69132
G1 X110.152 Y166.949 E19.77878
G1 X109.454 Y166.89 E19.79275
G1 X108.287 Y166.723 E19.81628
G1 X107.464 Y166.555 E19.83304
G1 X103.037 Y165.591 E19.92346
G1 X102.407 Y165.443 E19.93637
G1 X101.317 Y165.121 E19.95905
G1 X100.449 Y164.811 E19.97745
G1 X96.34 Y163.278 E20.06497
G1 X95.702 Y163.03 E20.07863
G1 X94.641 Y162.546 E20.1019
G1 X93.962 Y162.188 E20.11722
G1 X90.025 Y160.038 E20.20674
G1 X89.376 Y159.672 E20.22161
G1 X88.391 Y159.039 E20.24497
G1 X87.644 Y158.495 E20.26341
G1 X84.128 Y155.862 E20.35107
G1 F2700 E15.35107
;MESH:Distance.stl
G0 F6000 X104.467 Y156.132
G0 X104.848 Y155.107
G0 X117.5 Y156.161
;TYPE:WALL-INNER
G1 F2700 E20.35107
G1 F1200 X158 Y156.752 E21.15938
G1 X158 Y155.892 E21.17654
G1 X153.926 Y155.892 E21.25784
G1 X152.769 Y155.74 E21.28113
G1 X152.514 Y155.671 E21.2864
G1 X151.49 Y155.243 E21.30855
G1 X151.268 Y155.115 E21.31367
G1 X150.384 Y154.439 E21.33587
G1 X150.199 Y154.254 E21.34109
G1 X149.523 Y153.374 E21.36324
G1 X149.392 Y153.147 E21.36847
G1 X148.917 Y151.999 E21.39326
G1 X148.739 Y150.641 E21.4206
G1 X148.921 Y149.271 E21.44818
